app/component-library/components/Icons/Icon/assets/link-2.svg

<svg width="24" height="24" viewBox="0 0 24 24" fill="none" xmlns="http://www.w3.org/2000/svg">
<path d="M9.27045 21.5001C7.61045 21.5001 5.94045 20.8701 4.67045 19.6001C2.14045 17.0601 2.14045 12.9401 4.67045 10.4101C4.96045 10.1201 5.44045 10.1201 5.73045 10.4101C6.02045 10.7001 6.02045 11.1801 5.73045 11.4701C3.78045 13.4201 3.78045 16.5901 5.73045 18.5401C7.68045 20.4901 10.8504 20.4901 12.8004 18.5401C13.7404 17.6001 14.2604 16.3401 14.2604 15.0001C14.2604 13.6701 13.7404 12.4101 12.8004 11.4601C12.5104 11.1701 12.5104 10.6901 12.8004 10.4001C13.0904 10.1101 13.5704 10.1101 13.8604 10.4001C15.0904 11.6301 15.7604 13.2601 15.7604 15.0001C15.7604 16.7401 15.0804 18.3701 13.8604 19.6001C12.6004 20.8701 10.9404 21.5001 9.27045 21.5001Z" fill="currentColor"/>
<path d="M19.3508 14.1602C19.1608 14.1602 18.9708 14.0902 18.8208 13.9402C18.5308 13.6502 18.5308 13.1702 18.8208 12.8802C20.8708 10.8302 20.8708 7.50023 18.8208 5.46023C16.7708 3.41023 13.4408 3.41023 11.4008 5.46023C10.4108 6.45023 9.86084 7.77023 9.86084 9.17023C9.86084 10.5702 10.4108 11.8902 11.4008 12.8802C11.6908 13.1702 11.6908 13.6502 11.4008 13.9402C11.1108 14.2302 10.6308 14.2302 10.3408 13.9402C9.07084 12.6702 8.36084 10.9702 8.36084 9.17023C8.36084 7.37023 9.06084 5.67023 10.3408 4.40023C12.9708 1.77023 17.2508 1.77023 19.8908 4.40023C22.5208 7.03023 22.5208 11.3202 19.8908 13.9502C19.7408 14.0902 19.5408 14.1602 19.3508 14.1602Z" fill="currentColor"/>
</svg>

<svg xmlns="http://www.w3.org/2000/svg" width="24" height="24" viewBox="0 0 24 24" fill="none"><path d="M9.27 21.5c-1.66 0-3.33-.63-4.6-1.9-2.53-2.54-2.53-6.66 0-9.19.29-.29.77-.29 1.06 0 .29.29.29.77 0 1.06a5.003 5.003 0 0 0 0 7.07 5.003 5.003 0 0 0 7.07 0c.94-.94 1.46-2.2 1.46-3.54 0-1.33-.52-2.59-1.46-3.54a.754.754 0 0 1 0-1.06c.29-.29.77-.29 1.06 0a6.45 6.45 0 0 1 1.9 4.6c0 1.74-.68 3.37-1.9 4.6a6.432 6.432 0 0 1-4.59 1.9z" fill="currentColor"/><path d="M19.35 14.16c-.19 0-.38-.07-.53-.22a.754.754 0 0 1 0-1.06c2.05-2.05 2.05-5.38 0-7.42-2.05-2.05-5.38-2.05-7.42 0a5.22 5.22 0 0 0-1.54 3.71c0 1.4.55 2.72 1.54 3.71.29.29.29.77 0 1.06-.29.29-.77.29-1.06 0a6.719 6.719 0 0 1-1.98-4.77c0-1.8.7-3.5 1.98-4.77 2.63-2.63 6.91-2.63 9.55 0 2.63 2.63 2.63 6.92 0 9.55-.15.14-.35.21-.54.21z" fill="currentColor"/></svg>
